X: 2 % start of header
T:Torus:Taurus Tune
T:40 of 100,000,000,000,000
C: (Sid.)
O: Jeff Minter
R:Procedurally Generated
L: 1/8
K: D % scale: C major
V:1 name="Voice 1"
D16    |     |     |     | ^A,16    |     |     |     | D16    |     |     |     | D16    |     |     |     | :|
V:2 name="Voice 2"
A4    | F4    | A4    | A4    | F4    | ^C4    | F4    | F4    | A4    | F4    | A4    | A4    | A4    | F4    | A4    | A4    | :|
V:3 name="Voice 3"
e1c1e1e1|c1^G1c1c1|e1c1e1e1|e1c1e1e1|c1^G1c1c1|^G1E1^G1^G1|c1^G1c1c1|c1^G1c1c1|e1c1e1e1|c1^G1c1c1|e1c1e1e1|e1c1e1e1|e1c1e1e1|c1^G1c1c1|e1c1e1e1|e1c1e1e1|:|
